X:1
T:Little Willie 2
M:3/4
L:1/8
K:D
 DF| A3 AB A| A/2 F3/2 z2 DF| A3 AB A| F3 A,A, D| F3 DE F| DB, z2 DD|\
 A,3 A,B, D| D4||
